X: 39475
T: Tarruing Teann An Crios
R: slip jig
M: 9/8
K: Dmajor
d2B B>B>B BAG|d>dd g>ed e2d|d2B B>B>B BAG|g>ed B>AG B3|
d2B B>B>B BAG|d>dd g>ed e3|d2B B>B>B Bee|e>ge B>dd e3|
d2g e>g>e B2 d|e>e>e g>ed e2 d|d2g e>ge B>BB|g>ed B>A>G B3|
d2g e>ge d2 B|e>e>e g>ed e2 d|d2g e>ge B>ee|e>ge B>d>d e3||
e2c c>c>c c BA|e>ee a>fe f2 e|e2c c>c>c c BA|a>fe c>BA c3|
e2c c>c>c c BA|e>ee a>fe f3|e2c c>c>c c ff|f>af c>ee f3|
e2a f>af c2e|f>f>f a>fe f2 e|e2a f>af c>cc|a>fe c>B>A c3|
e2a f>af e2c|f>f>f a>fe f2 e|e2a f>af c>ff|f>af c>e>e f3|

